X: 7284
T: Claudine
R: reel
M: 4/4
K: Gmajor
|:A|d3e fded|cded cAGA|d3e fded|cAGE D3A|
d3e fded|cded cAGA|d3e fded|cage d3:|
|:A|A2FD ADFA|G2 EC GCEC|A2FD ADFD|Bcde fdd:|

